images/50872746.svg

<?xml version="1.0" encoding="UTF-8"?>
<svg xmlns="http://www.w3.org/2000/svg" xmlns:xlink="http://www.w3.org/1999/xlink" width="300pt" height="300pt" viewBox="0 0 300 300" version="1.1">
<defs>
<g>
<symbol overflow="visible" id="glyph0-0">
<path style="stroke:none;" d="M 0.453125 1.59375 L 0.453125 -6.34375 L 4.953125 -6.34375 L 4.953125 1.59375 Z M 0.953125 1.09375 L 4.453125 1.09375 L 4.453125 -5.84375 L 0.953125 -5.84375 Z M 0.953125 1.09375 "/>
</symbol>
<symbol overflow="visible" id="glyph0-1">
<path style="stroke:none;" d="M 4.8125 -6.34375 L 4.8125 -5.484375 C 4.476562 -5.640625 4.160156 -5.753906 3.859375 -5.828125 C 3.566406 -5.910156 3.28125 -5.953125 3 -5.953125 C 2.507812 -5.953125 2.132812 -5.859375 1.875 -5.671875 C 1.613281 -5.484375 1.484375 -5.21875 1.484375 -4.875 C 1.484375 -4.582031 1.570312 -4.363281 1.75 -4.21875 C 1.925781 -4.070312 2.253906 -3.953125 2.734375 -3.859375 L 3.28125 -3.75 C 3.9375 -3.625 4.421875 -3.398438 4.734375 -3.078125 C 5.054688 -2.765625 5.21875 -2.34375 5.21875 -1.8125 C 5.21875 -1.175781 5.003906 -0.691406 4.578125 -0.359375 C 4.148438 -0.0351562 3.523438 0.125 2.703125 0.125 C 2.390625 0.125 2.054688 0.0859375 1.703125 0.015625 C 1.359375 -0.046875 1 -0.148438 0.625 -0.296875 L 0.625 -1.203125 C 0.976562 -1.003906 1.328125 -0.851562 1.671875 -0.75 C 2.023438 -0.644531 2.367188 -0.59375 2.703125 -0.59375 C 3.203125 -0.59375 3.585938 -0.691406 3.859375 -0.890625 C 4.140625 -1.085938 4.28125 -1.375 4.28125 -1.75 C 4.28125 -2.070312 4.179688 -2.320312 3.984375 -2.5 C 3.785156 -2.675781 3.460938 -2.8125 3.015625 -2.90625 L 2.46875 -3.015625 C 1.8125 -3.148438 1.332031 -3.359375 1.03125 -3.640625 C 0.738281 -3.921875 0.59375 -4.3125 0.59375 -4.8125 C 0.59375 -5.382812 0.796875 -5.835938 1.203125 -6.171875 C 1.609375 -6.515625 2.171875 -6.6875 2.890625 -6.6875 C 3.203125 -6.6875 3.515625 -6.65625 3.828125 -6.59375 C 4.148438 -6.539062 4.476562 -6.457031 4.8125 -6.34375 Z M 4.8125 -6.34375 "/>
</symbol>
<symbol overflow="visible" id="glyph0-2">
<path style="stroke:none;" d="M 0.890625 -6.5625 L 2.078125 -6.5625 L 4.984375 -1.078125 L 4.984375 -6.5625 L 5.84375 -6.5625 L 5.84375 0 L 4.65625 0 L 1.75 -5.484375 L 1.75 0 L 0.890625 0 Z M 0.890625 -6.5625 "/>
</symbol>
<symbol overflow="visible" id="glyph0-3">
<path style="stroke:none;" d="M 0.890625 -6.5625 L 1.765625 -6.5625 L 1.765625 -3.875 L 5 -3.875 L 5 -6.5625 L 5.890625 -6.5625 L 5.890625 0 L 5 0 L 5 -3.125 L 1.765625 -3.125 L 1.765625 0 L 0.890625 0 Z M 0.890625 -6.5625 "/>
</symbol>
<symbol overflow="visible" id="glyph0-4">
<path style="stroke:none;" d="M 0.890625 -6.5625 L 4.65625 -6.5625 L 4.65625 -5.8125 L 1.765625 -5.8125 L 1.765625 -3.875 L 4.375 -3.875 L 4.375 -3.140625 L 1.765625 -3.140625 L 1.765625 0 L 0.890625 0 Z M 0.890625 -6.5625 "/>
</symbol>
</g>
</defs>
<g id="surface26029">
<rect x="0" y="0" width="300" height="300" style="fill:rgb(100%,100%,100%);fill-opacity:1;stroke:none;"/>
<path style="fill:none;stroke-width:1.2;stroke-linecap:butt;stroke-linejoin:miter;stroke:rgb(80%,80%,0%);stroke-opacity:1;stroke-miterlimit:10;" d="M 51.851562 162.195312 L 43.550781 155.792969 "/>
<path style="fill:none;stroke-width:1.2;stroke-linecap:butt;stroke-linejoin:miter;stroke:rgb(0%,0%,0%);stroke-opacity:1;stroke-miterlimit:10;" d="M 43.550781 155.792969 L 35.25 149.390625 "/>
<path style="fill:none;stroke-width:1.2;stroke-linecap:butt;stroke-linejoin:miter;stroke:rgb(80%,80%,0%);stroke-opacity:1;stroke-miterlimit:10;" d="M 51.851562 162.195312 L 61.546875 158.207031 "/>
<path style="fill:none;stroke-width:1.2;stroke-linecap:butt;stroke-linejoin:miter;stroke:rgb(0%,0%,0%);stroke-opacity:1;stroke-miterlimit:10;" d="M 61.546875 158.207031 L 71.242188 154.222656 "/>
<path style=" stroke:none;fill-rule:nonzero;fill:rgb(100%,100%,100%);fill-opacity:1;" d="M 48.851562 156.695312 L 54.851562 156.695312 L 54.851562 167.695312 L 48.851562 167.695312 Z M 48.851562 156.695312 "/>
<g style="fill:rgb(80%,80%,0%);fill-opacity:1;">
  <use xlink:href="#glyph0-1" x="48.851562" y="165.358398"/>
</g>
<path style="fill:none;stroke-width:1.2;stroke-linecap:butt;stroke-linejoin:miter;stroke:rgb(0%,0%,0%);stroke-opacity:1;stroke-miterlimit:10;" d="M 71.242188 154.222656 L 80.164062 159.722656 "/>
<path style="fill:none;stroke-width:1.2;stroke-linecap:butt;stroke-linejoin:miter;stroke:rgb(0%,0%,100%);stroke-opacity:1;stroke-miterlimit:10;" d="M 80.164062 159.722656 L 89.089844 165.222656 "/>
<path style="fill:none;stroke-width:1.2;stroke-linecap:butt;stroke-linejoin:miter;stroke:rgb(0%,0%,100%);stroke-opacity:1;stroke-miterlimit:10;" d="M 76.1875 133.847656 L 73.714844 144.035156 "/>
<path style="fill:none;stroke-width:1.2;stroke-linecap:butt;stroke-linejoin:miter;stroke:rgb(0%,0%,0%);stroke-opacity:1;stroke-miterlimit:10;" d="M 73.714844 144.035156 L 71.242188 154.222656 "/>
<path style="fill:none;stroke-width:1.2;stroke-linecap:butt;stroke-linejoin:miter;stroke:rgb(0%,0%,100%);stroke-opacity:1;stroke-miterlimit:10;" d="M 80.488281 137.046875 L 78.507812 145.199219 "/>
<path style="fill:none;stroke-width:1.2;stroke-linecap:butt;stroke-linejoin:miter;stroke:rgb(0%,0%,0%);stroke-opacity:1;stroke-miterlimit:10;" d="M 78.507812 145.199219 L 76.53125 153.347656 "/>
<path style="fill:none;stroke-width:1.2;stroke-linecap:butt;stroke-linejoin:miter;stroke:rgb(0%,0%,100%);stroke-opacity:1;stroke-miterlimit:10;" d="M 89.089844 165.222656 L 97.078125 158.433594 "/>
<path style="fill:none;stroke-width:1.2;stroke-linecap:butt;stroke-linejoin:miter;stroke:rgb(0%,0%,0%);stroke-opacity:1;stroke-miterlimit:10;" d="M 97.078125 158.433594 L 105.066406 151.644531 "/>
<path style=" stroke:none;fill-rule:nonzero;fill:rgb(100%,100%,100%);fill-opacity:1;" d="M 82.089844 159.722656 L 96.089844 159.722656 L 96.089844 170.722656 L 82.089844 170.722656 Z M 82.089844 159.722656 "/>
<g style="fill:rgb(0%,0%,100%);fill-opacity:1;">
  <use xlink:href="#glyph0-2" x="82.089844" y="168.385742"/>
  <use xlink:href="#glyph0-3" x="89.067383" y="168.385742"/>
</g>
<path style="fill:none;stroke-width:1.2;stroke-linecap:butt;stroke-linejoin:miter;stroke:rgb(0%,0%,0%);stroke-opacity:1;stroke-miterlimit:10;" d="M 105.066406 151.644531 L 97.09375 132.253906 "/>
<path style="fill:none;stroke-width:1.2;stroke-linecap:butt;stroke-linejoin:miter;stroke:rgb(0%,0%,0%);stroke-opacity:1;stroke-miterlimit:10;" d="M 99.707031 151.582031 L 93.328125 136.070312 "/>
<path style="fill:none;stroke-width:1.2;stroke-linecap:butt;stroke-linejoin:miter;stroke:rgb(0%,0%,0%);stroke-opacity:1;stroke-miterlimit:10;" d="M 105.066406 151.644531 L 125.441406 156.59375 "/>
<path style="fill:none;stroke-width:1.2;stroke-linecap:butt;stroke-linejoin:miter;stroke:rgb(0%,0%,0%);stroke-opacity:1;stroke-miterlimit:10;" d="M 97.09375 132.253906 L 86.640625 133.050781 "/>
<path style="fill:none;stroke-width:1.2;stroke-linecap:butt;stroke-linejoin:miter;stroke:rgb(0%,0%,100%);stroke-opacity:1;stroke-miterlimit:10;" d="M 86.640625 133.050781 L 76.1875 133.847656 "/>
<path style="fill:none;stroke-width:1.2;stroke-linecap:butt;stroke-linejoin:miter;stroke:rgb(0%,0%,0%);stroke-opacity:1;stroke-miterlimit:10;" d="M 97.09375 132.253906 L 108.09375 114.40625 "/>
<path style=" stroke:none;fill-rule:nonzero;fill:rgb(100%,100%,100%);fill-opacity:1;" d="M 73.1875 128.347656 L 80.1875 128.347656 L 80.1875 139.347656 L 73.1875 139.347656 Z M 73.1875 128.347656 "/>
<g style="fill:rgb(0%,0%,100%);fill-opacity:1;">
  <use xlink:href="#glyph0-2" x="73.1875" y="137.010742"/>
</g>
<path style="fill:none;stroke-width:1.2;stroke-linecap:butt;stroke-linejoin:miter;stroke:rgb(0%,0%,0%);stroke-opacity:1;stroke-miterlimit:10;" d="M 108.09375 114.40625 L 129.050781 115.007812 "/>
<path style="fill:none;stroke-width:1.2;stroke-linecap:butt;stroke-linejoin:miter;stroke:rgb(0%,0%,0%);stroke-opacity:1;stroke-miterlimit:10;" d="M 110.332031 109.535156 L 127.097656 110.019531 "/>
<path style="fill:none;stroke-width:1.2;stroke-linecap:butt;stroke-linejoin:miter;stroke:rgb(0%,0%,0%);stroke-opacity:1;stroke-miterlimit:10;" d="M 98.136719 95.957031 L 108.09375 114.40625 "/>
<path style="fill:none;stroke-width:1.2;stroke-linecap:butt;stroke-linejoin:miter;stroke:rgb(0%,0%,0%);stroke-opacity:1;stroke-miterlimit:10;" d="M 129.050781 115.007812 L 140.050781 97.160156 "/>
<path style="fill:none;stroke-width:1.2;stroke-linecap:butt;stroke-linejoin:miter;stroke:rgb(0%,0%,0%);stroke-opacity:1;stroke-miterlimit:10;" d="M 140.050781 97.160156 L 135.070312 87.9375 "/>
<path style="fill:none;stroke-width:1.2;stroke-linecap:butt;stroke-linejoin:miter;stroke:rgb(0%,0%,100%);stroke-opacity:1;stroke-miterlimit:10;" d="M 135.070312 87.9375 L 130.09375 78.710938 "/>
<path style="fill:none;stroke-width:1.2;stroke-linecap:butt;stroke-linejoin:miter;stroke:rgb(0%,0%,0%);stroke-opacity:1;stroke-miterlimit:10;" d="M 134.714844 97.660156 L 130.730469 90.277344 "/>
<path style="fill:none;stroke-width:1.2;stroke-linecap:butt;stroke-linejoin:miter;stroke:rgb(0%,0%,100%);stroke-opacity:1;stroke-miterlimit:10;" d="M 130.730469 90.277344 L 126.746094 82.898438 "/>
<path style="fill:none;stroke-width:1.2;stroke-linecap:butt;stroke-linejoin:miter;stroke:rgb(0%,0%,0%);stroke-opacity:1;stroke-miterlimit:10;" d="M 140.050781 97.160156 L 150.527344 97.460938 "/>
<path style="fill:none;stroke-width:1.2;stroke-linecap:butt;stroke-linejoin:miter;stroke:rgb(0%,0%,100%);stroke-opacity:1;stroke-miterlimit:10;" d="M 150.527344 97.460938 L 161.007812 97.765625 "/>
<path style="fill:none;stroke-width:1.2;stroke-linecap:butt;stroke-linejoin:miter;stroke:rgb(0%,0%,100%);stroke-opacity:1;stroke-miterlimit:10;" d="M 130.09375 78.710938 L 119.613281 78.410156 "/>
<path style="fill:none;stroke-width:1.2;stroke-linecap:butt;stroke-linejoin:miter;stroke:rgb(0%,0%,0%);stroke-opacity:1;stroke-miterlimit:10;" d="M 119.613281 78.410156 L 109.136719 78.109375 "/>
<path style=" stroke:none;fill-rule:nonzero;fill:rgb(100%,100%,100%);fill-opacity:1;" d="M 127.09375 73.210938 L 134.09375 73.210938 L 134.09375 84.210938 L 127.09375 84.210938 Z M 127.09375 73.210938 "/>
<g style="fill:rgb(0%,0%,100%);fill-opacity:1;">
  <use xlink:href="#glyph0-2" x="127.09375" y="81.874023"/>
</g>
<path style="fill:none;stroke-width:1.2;stroke-linecap:butt;stroke-linejoin:miter;stroke:rgb(0%,0%,0%);stroke-opacity:1;stroke-miterlimit:10;" d="M 109.136719 78.109375 L 98.136719 95.957031 "/>
<path style="fill:none;stroke-width:1.2;stroke-linecap:butt;stroke-linejoin:miter;stroke:rgb(0%,0%,0%);stroke-opacity:1;stroke-miterlimit:10;" d="M 112.234375 82.480469 L 103.4375 96.761719 "/>
<path style="fill:none;stroke-width:1.2;stroke-linecap:butt;stroke-linejoin:miter;stroke:rgb(0%,0%,100%);stroke-opacity:1;stroke-miterlimit:10;" d="M 161.007812 97.765625 L 165.984375 106.988281 "/>
<path style="fill:none;stroke-width:1.2;stroke-linecap:butt;stroke-linejoin:miter;stroke:rgb(0%,0%,0%);stroke-opacity:1;stroke-miterlimit:10;" d="M 165.984375 106.988281 L 170.964844 116.214844 "/>
<path style=" stroke:none;fill-rule:nonzero;fill:rgb(100%,100%,100%);fill-opacity:1;" d="M 154.007812 92.265625 L 168.007812 92.265625 L 168.007812 103.265625 L 154.007812 103.265625 Z M 154.007812 92.265625 "/>
<g style="fill:rgb(0%,0%,100%);fill-opacity:1;">
  <use xlink:href="#glyph0-2" x="154.007812" y="100.928711"/>
  <use xlink:href="#glyph0-3" x="160.985352" y="100.928711"/>
</g>
<path style="fill:none;stroke-width:1.2;stroke-linecap:butt;stroke-linejoin:miter;stroke:rgb(0%,0%,0%);stroke-opacity:1;stroke-miterlimit:10;" d="M 170.964844 116.214844 L 191.921875 116.816406 "/>
<path style="fill:none;stroke-width:1.2;stroke-linecap:butt;stroke-linejoin:miter;stroke:rgb(0%,0%,0%);stroke-opacity:1;stroke-miterlimit:10;" d="M 170.964844 116.214844 L 159.964844 134.0625 "/>
<path style="fill:none;stroke-width:1.2;stroke-linecap:butt;stroke-linejoin:miter;stroke:rgb(0%,0%,0%);stroke-opacity:1;stroke-miterlimit:10;" d="M 191.921875 116.816406 L 201.878906 135.265625 "/>
<path style="fill:none;stroke-width:1.2;stroke-linecap:butt;stroke-linejoin:miter;stroke:rgb(0%,0%,0%);stroke-opacity:1;stroke-miterlimit:10;" d="M 201.878906 135.265625 L 222.835938 135.871094 "/>
<path style="fill:none;stroke-width:1.2;stroke-linecap:butt;stroke-linejoin:miter;stroke:rgb(0%,0%,0%);stroke-opacity:1;stroke-miterlimit:10;" d="M 222.835938 135.871094 L 232.792969 154.320312 "/>
<path style="fill:none;stroke-width:1.2;stroke-linecap:butt;stroke-linejoin:miter;stroke:rgb(0%,0%,0%);stroke-opacity:1;stroke-miterlimit:10;" d="M 228.171875 135.371094 L 236.136719 150.132812 "/>
<path style="fill:none;stroke-width:1.2;stroke-linecap:butt;stroke-linejoin:miter;stroke:rgb(0%,0%,0%);stroke-opacity:1;stroke-miterlimit:10;" d="M 233.835938 118.023438 L 222.835938 135.871094 "/>
<path style="fill:none;stroke-width:1.2;stroke-linecap:butt;stroke-linejoin:miter;stroke:rgb(0%,0%,0%);stroke-opacity:1;stroke-miterlimit:10;" d="M 232.792969 154.320312 L 253.75 154.921875 "/>
<path style="fill:none;stroke-width:1.2;stroke-linecap:butt;stroke-linejoin:miter;stroke:rgb(0%,0%,0%);stroke-opacity:1;stroke-miterlimit:10;" d="M 253.75 154.921875 L 264.75 137.074219 "/>
<path style="fill:none;stroke-width:1.2;stroke-linecap:butt;stroke-linejoin:miter;stroke:rgb(0%,0%,0%);stroke-opacity:1;stroke-miterlimit:10;" d="M 250.648438 150.550781 L 259.449219 136.269531 "/>
<path style="fill:none;stroke-width:1.2;stroke-linecap:butt;stroke-linejoin:miter;stroke:rgb(0%,0%,0%);stroke-opacity:1;stroke-miterlimit:10;" d="M 264.75 137.074219 L 254.792969 118.625 "/>
<path style="fill:none;stroke-width:1.2;stroke-linecap:butt;stroke-linejoin:miter;stroke:rgb(0%,0%,0%);stroke-opacity:1;stroke-miterlimit:10;" d="M 254.792969 118.625 L 233.835938 118.023438 "/>
<path style="fill:none;stroke-width:1.2;stroke-linecap:butt;stroke-linejoin:miter;stroke:rgb(0%,0%,0%);stroke-opacity:1;stroke-miterlimit:10;" d="M 252.554688 123.496094 L 235.789062 123.011719 "/>
<path style="fill:none;stroke-width:1.2;stroke-linecap:butt;stroke-linejoin:miter;stroke:rgb(0%,0%,0%);stroke-opacity:1;stroke-miterlimit:10;" d="M 125.441406 156.59375 L 131.34375 176.710938 "/>
<path style="fill:none;stroke-width:1.2;stroke-linecap:butt;stroke-linejoin:miter;stroke:rgb(0%,0%,0%);stroke-opacity:1;stroke-miterlimit:10;" d="M 130.765625 157.214844 L 135.488281 173.308594 "/>
<path style="fill:none;stroke-width:1.2;stroke-linecap:butt;stroke-linejoin:miter;stroke:rgb(0%,0%,0%);stroke-opacity:1;stroke-miterlimit:10;" d="M 139.910156 141.421875 L 125.441406 156.59375 "/>
<path style="fill:none;stroke-width:1.2;stroke-linecap:butt;stroke-linejoin:miter;stroke:rgb(0%,0%,0%);stroke-opacity:1;stroke-miterlimit:10;" d="M 131.34375 176.710938 L 151.71875 181.65625 "/>
<path style="fill:none;stroke-width:1.2;stroke-linecap:butt;stroke-linejoin:miter;stroke:rgb(0%,0%,0%);stroke-opacity:1;stroke-miterlimit:10;" d="M 151.71875 181.65625 L 166.1875 166.484375 "/>
<path style="fill:none;stroke-width:1.2;stroke-linecap:butt;stroke-linejoin:miter;stroke:rgb(0%,0%,0%);stroke-opacity:1;stroke-miterlimit:10;" d="M 149.59375 176.734375 L 161.171875 164.597656 "/>
<path style="fill:none;stroke-width:1.2;stroke-linecap:butt;stroke-linejoin:miter;stroke:rgb(0%,0%,0%);stroke-opacity:1;stroke-miterlimit:10;" d="M 151.71875 181.65625 L 157.621094 201.773438 "/>
<path style="fill:none;stroke-width:1.2;stroke-linecap:butt;stroke-linejoin:miter;stroke:rgb(0%,0%,0%);stroke-opacity:1;stroke-miterlimit:10;" d="M 166.1875 166.484375 L 160.285156 146.367188 "/>
<path style="fill:none;stroke-width:1.2;stroke-linecap:butt;stroke-linejoin:miter;stroke:rgb(0%,0%,0%);stroke-opacity:1;stroke-miterlimit:10;" d="M 160.285156 146.367188 L 139.910156 141.421875 "/>
<path style="fill:none;stroke-width:1.2;stroke-linecap:butt;stroke-linejoin:miter;stroke:rgb(0%,0%,0%);stroke-opacity:1;stroke-miterlimit:10;" d="M 157.082031 150.667969 L 140.785156 146.710938 "/>
<path style="fill:none;stroke-width:1.2;stroke-linecap:butt;stroke-linejoin:miter;stroke:rgb(0%,0%,0%);stroke-opacity:1;stroke-miterlimit:10;" d="M 157.621094 201.773438 L 160.574219 211.832031 "/>
<path style="fill:none;stroke-width:1.2;stroke-linecap:butt;stroke-linejoin:miter;stroke:rgb(20%,80%,80%);stroke-opacity:1;stroke-miterlimit:10;" d="M 160.574219 211.832031 L 163.523438 221.890625 "/>
<path style="fill:none;stroke-width:1.2;stroke-linecap:butt;stroke-linejoin:miter;stroke:rgb(0%,0%,0%);stroke-opacity:1;stroke-miterlimit:10;" d="M 157.621094 201.773438 L 147.5625 204.726562 "/>
<path style="fill:none;stroke-width:1.2;stroke-linecap:butt;stroke-linejoin:miter;stroke:rgb(20%,80%,80%);stroke-opacity:1;stroke-miterlimit:10;" d="M 147.5625 204.726562 L 137.503906 207.675781 "/>
<path style="fill:none;stroke-width:1.2;stroke-linecap:butt;stroke-linejoin:miter;stroke:rgb(0%,0%,0%);stroke-opacity:1;stroke-miterlimit:10;" d="M 157.621094 201.773438 L 167.679688 198.824219 "/>
<path style="fill:none;stroke-width:1.2;stroke-linecap:butt;stroke-linejoin:miter;stroke:rgb(20%,80%,80%);stroke-opacity:1;stroke-miterlimit:10;" d="M 167.679688 198.824219 L 177.738281 195.871094 "/>
<path style=" stroke:none;fill-rule:nonzero;fill:rgb(100%,100%,100%);fill-opacity:1;" d="M 160.523438 216.390625 L 166.523438 216.390625 L 166.523438 227.390625 L 160.523438 227.390625 Z M 160.523438 216.390625 "/>
<g style="fill:rgb(20%,80%,80%);fill-opacity:1;">
  <use xlink:href="#glyph0-4" x="160.523438" y="225.053711"/>
</g>
<path style=" stroke:none;fill-rule:nonzero;fill:rgb(100%,100%,100%);fill-opacity:1;" d="M 131.503906 202.175781 L 137.503906 202.175781 L 137.503906 213.175781 L 131.503906 213.175781 Z M 131.503906 202.175781 "/>
<g style="fill:rgb(20%,80%,80%);fill-opacity:1;">
  <use xlink:href="#glyph0-4" x="131.503906" y="210.838867"/>
</g>
<path style=" stroke:none;fill-rule:nonzero;fill:rgb(100%,100%,100%);fill-opacity:1;" d="M 174.738281 190.371094 L 180.738281 190.371094 L 180.738281 201.371094 L 174.738281 201.371094 Z M 174.738281 190.371094 "/>
<g style="fill:rgb(20%,80%,80%);fill-opacity:1;">
  <use xlink:href="#glyph0-4" x="174.738281" y="199.03418"/>
</g>
</g>
</svg>

<svg xmlns="http://www.w3.org/2000/svg" xmlns:xlink="http://www.w3.org/1999/xlink" width="300pt" height="300pt" viewBox="0 0 300 300"><defs><symbol overflow="visible"><path d="M.453 1.594v-7.938h4.5v7.938zm.5-.5h3.5v-6.938h-3.5zm0 0"/></symbol><symbol overflow="visible" id="a"><path d="M4.813-6.344v.86c-.336-.157-.653-.27-.954-.344-.294-.082-.58-.125-.86-.125-.492 0-.867.094-1.125.28-.262.19-.39.454-.39.798 0 .293.085.512.265.656.176.15.504.267.984.36l.547.11c.658.125 1.142.352 1.454.672.32.312.485.734.485 1.265 0 .637-.216 1.122-.642 1.454-.43.325-1.055.485-1.875.485-.312 0-.648-.04-1-.11C1.36-.046 1-.147.625-.296v-.906c.352.2.703.35 1.047.453.35.105.695.156 1.03.156.5 0 .884-.097 1.157-.297.28-.196.42-.485.42-.86 0-.32-.1-.57-.296-.75-.2-.176-.523-.313-.968-.406l-.547-.11C1.81-3.148 1.33-3.36 1.03-3.64.74-3.923.595-4.313.595-4.813c0-.57.203-1.024.61-1.36.405-.344.968-.516 1.687-.516.313 0 .626.032.938.094.32.055.65.137.985.25zm0 0"/></symbol><symbol overflow="visible" id="b"><path d="M.89-6.563H2.08l2.906 5.485v-5.484h.86V0H4.656L1.75-5.484V0H.89zm0 0"/></symbol><symbol overflow="visible" id="c"><path d="M.89-6.563h.876v2.688H5v-2.688h.89V0H5v-3.125H1.766V0H.89zm0 0"/></symbol><symbol overflow="visible" id="d"><path d="M.89-6.563h3.766v.75h-2.89v1.938h2.61v.734h-2.61V0H.89zm0 0"/></symbol></defs><g><path fill="#fff" d="M0 0h300v300H0z"/><path d="M51.852 162.195l-8.3-6.402" stroke-width="1.2" stroke="#cc0" stroke-miterlimit="10" fill="none"/><path d="M43.55 155.793l-8.3-6.402" stroke-width="1.2" stroke="#000" stroke-miterlimit="10" fill="none"/><path d="M51.852 162.195l9.695-3.988" stroke-width="1.2" stroke="#cc0" stroke-miterlimit="10" fill="none"/><path d="M61.547 158.207l9.695-3.984" stroke-width="1.2" stroke="#000" stroke-miterlimit="10" fill="none"/><path d="M48.852 156.695h6v11h-6zm0 0" fill="#fff"/><use xlink:href="#a" x="48.852" y="165.358" fill="#cc0"/><path d="M71.242 154.223l8.922 5.5" stroke-width="1.2" stroke="#000" stroke-miterlimit="10" fill="none"/><path d="M80.164 159.723l8.926 5.5M76.188 133.848l-2.473 10.187" stroke-width="1.2" stroke="#00f" stroke-miterlimit="10" fill="none"/><path d="M73.715 144.035l-2.473 10.188" stroke-width="1.2" stroke="#000" stroke-miterlimit="10" fill="none"/><path d="M80.488 137.047l-1.98 8.152" stroke-width="1.2" stroke="#00f" stroke-miterlimit="10" fill="none"/><path d="M78.508 145.2l-1.977 8.148" stroke-width="1.2" stroke="#000" stroke-miterlimit="10" fill="none"/><path d="M89.09 165.223l7.988-6.79" stroke-width="1.2" stroke="#00f" stroke-miterlimit="10" fill="none"/><path d="M97.078 158.434l7.988-6.79" stroke-width="1.2" stroke="#000" stroke-miterlimit="10" fill="none"/><path d="M82.09 159.723h14v11h-14zm0 0" fill="#fff"/><g fill="#00f"><use xlink:href="#b" x="82.09" y="168.386"/><use xlink:href="#c" x="89.067" y="168.386"/></g><path d="M105.066 151.645l-7.972-19.39M99.707 151.582l-6.38-15.512M105.066 151.645l20.375 4.95M97.094 132.254l-10.453.797" stroke-width="1.2" stroke="#000" stroke-miterlimit="10" fill="none"/><path d="M86.64 133.05l-10.453.798" stroke-width="1.2" stroke="#00f" stroke-miterlimit="10" fill="none"/><path d="M97.094 132.254l11-17.848" stroke-width="1.2" stroke="#000" stroke-miterlimit="10" fill="none"/><path d="M73.188 128.348h7v11h-7zm0 0" fill="#fff"/><use xlink:href="#b" x="73.188" y="137.011" fill="#00f"/><path d="M108.094 114.406l20.957.602M110.332 109.535l16.766.485M98.137 95.957l9.957 18.45M129.05 115.008l11-17.848M140.05 97.16l-4.98-9.222" stroke-width="1.2" stroke="#000" stroke-miterlimit="10" fill="none"/><path d="M135.07 87.938l-4.976-9.227" stroke-width="1.2" stroke="#00f" stroke-miterlimit="10" fill="none"/><path d="M134.715 97.66l-3.985-7.383" stroke-width="1.2" stroke="#000" stroke-miterlimit="10" fill="none"/><path d="M130.73 90.277l-3.984-7.38" stroke-width="1.2" stroke="#00f" stroke-miterlimit="10" fill="none"/><path d="M140.05 97.16l10.477.3" stroke-width="1.2" stroke="#000" stroke-miterlimit="10" fill="none"/><path d="M150.527 97.46l10.48.306M130.094 78.71l-10.48-.3" stroke-width="1.2" stroke="#00f" stroke-miterlimit="10" fill="none"/><path d="M119.613 78.41l-10.476-.3" stroke-width="1.2" stroke="#000" stroke-miterlimit="10" fill="none"/><path d="M127.094 73.21h7v11h-7zm0 0" fill="#fff"/><use xlink:href="#b" x="127.094" y="81.874" fill="#00f"/><path d="M109.137 78.11l-11 17.847M112.234 82.48l-8.796 14.282" stroke-width="1.2" stroke="#000" stroke-miterlimit="10" fill="none"/><path d="M161.008 97.766l4.976 9.222" stroke-width="1.2" stroke="#00f" stroke-miterlimit="10" fill="none"/><path d="M165.984 106.988l4.98 9.227" stroke-width="1.2" stroke="#000" stroke-miterlimit="10" fill="none"/><path d="M154.008 92.266h14v11h-14zm0 0" fill="#fff"/><g fill="#00f"><use xlink:href="#b" x="154.008" y="100.929"/><use xlink:href="#c" x="160.985" y="100.929"/></g><path d="M170.965 116.215l20.957.6M170.965 116.215l-11 17.847M191.922 116.816l9.957 18.45M201.88 135.266l20.956.605M222.836 135.87l9.957 18.45M228.172 135.37l7.965 14.763M233.836 118.023l-11 17.848M232.793 154.32l20.957.602M253.75 154.922l11-17.848M250.648 150.55l8.8-14.28M264.75 137.074l-9.957-18.45M254.793 118.625l-20.957-.602M252.555 123.496l-16.766-.484M125.44 156.594l5.904 20.117M130.766 157.215l4.722 16.094M139.91 141.422l-14.47 15.172M131.344 176.71l20.375 4.946M151.72 181.656l14.468-15.172M149.594 176.734l11.578-12.136M151.72 181.656l5.9 20.117M166.188 166.484l-5.903-20.117M160.285 146.367l-20.375-4.945M157.082 150.668l-16.297-3.957M157.62 201.773l2.954 10.06" stroke-width="1.2" stroke="#000" stroke-miterlimit="10" fill="none"/><path d="M160.574 211.832l2.95 10.06" stroke-width="1.2" stroke="#3cc" stroke-miterlimit="10" fill="none"/><path d="M157.62 201.773l-10.058 2.954" stroke-width="1.2" stroke="#000" stroke-miterlimit="10" fill="none"/><path d="M147.563 204.727l-10.06 2.95" stroke-width="1.2" stroke="#3cc" stroke-miterlimit="10" fill="none"/><path d="M157.62 201.773l10.06-2.95" stroke-width="1.2" stroke="#000" stroke-miterlimit="10" fill="none"/><path d="M167.68 198.824l10.058-2.953" stroke-width="1.2" stroke="#3cc" stroke-miterlimit="10" fill="none"/><path d="M160.523 216.39h6v11h-6zm0 0" fill="#fff"/><use xlink:href="#d" x="160.523" y="225.054" fill="#3cc"/><path d="M131.504 202.176h6v11h-6zm0 0" fill="#fff"/><use xlink:href="#d" x="131.504" y="210.839" fill="#3cc"/><path d="M174.738 190.37h6v11h-6zm0 0" fill="#fff"/><use xlink:href="#d" x="174.738" y="199.034" fill="#3cc"/></g></svg>
